X: 21483
T: Key Of The Convent, The
R: jig
M: 6/8
K: Dmajor
|:AFF dFF|A^GB AFD|AFF dFE|DFA ~B3|
AFF dFF|A^GB AFE|~F3 AFE|DFA ~B3:|
|:ABc d2A|dfa agf|gfe fdB|AFA [1,2,3 ~B3:|4 ~B2A||
|:Bbb Baa|gfe fdA|Bbb BdB|AFA ~B2A|
Bbb Baa|gfe fdB|AdB AFE|DFA [1~B2A:|2 ~B2d||

